X:2
T:reel du Cultivateur
R:reel
O:Québec
%Q:1/4=200
S:Dominique Renaudin <domren:free.fr> QueTrad 2002-11-26
S:https://www.facebook.com/groups/fiddlehellmassachusetts/ 2020-6-17
M:4/4
K:Bm
ABc |\
"D"d2A2 FAdf | "A7"e2c2 Aceg | "D"ffdf "A"eece |\
[1,3 "D"defd "A7"A :|[2,4 "D"df"A7"ec "D"d :|
|: BAG |\
"D"FdAF dAFA | "G"GdBG dBGB | "A"AecA ecAc |\
[1,3 "D"dfed "A7"c :|[2,4 "D"df"A7"ec "D"d :|
